!!!COM: Bach, Johann Sebastian
!!!CDT: 1685/3/-1750/7/28
!!!OPR@@DE: Das wohltemperierte Klavier
!!!OPR@EN: The Well-Tempered Clavier
!!!OTL: The Well-Tempered Clavier, Book 2, Fugue 8 in D-sharp minor
!!!SCT: BWV 877b
!!!parts: 4
!!!RNB: The texture increases to five voices in the final two measures.
**kern	**kern	**kern	**kern
*staff2	*staff2	*staff1	*staff1
*clefF4	*clefG2	*clefG2	*clefG2
*k[f#c#g#d#a#e#]	*k[f#c#g#d#a#e#]	*k[f#c#g#d#a#e#]	*k[f#c#g#d#a#e#]
*M4/4	*M4/4	*M4/4	*M4/4
*d#:	*d#:	*d#:	*d#:
*MM48	*MM48	*MM48	*MM48
=1	=1	=1	=1
1r	1r	8r	1r
.	.	8d#	.
.	.	8d#L	.
.	.	8d#J	.
.	.	8c##L	.
.	.	8d#J	.
.	.	[4e#	.
=2	=2	=2	=2
1r	1r	8e#]L	1r
.	.	8d#J	.
.	.	4.g#	.
.	.	16f#L	.
.	.	16e#J	.
.	.	8a#L	.
.	.	8g#J	.
=3	=3	=3	=3
1r	8r	8f#L	1r
.	8A#	8e#J	.
.	8A#L	8d#L	.
.	8A#J	16c#	.
.	.	16d#J	.
.	8G##L	4.e#	.
.	8A#J	.	.
.	[4B#	.	.
.	.	16d#L	.
.	.	16e#J	.
=4	=4	=4	=4
1r	8B#]L	4.f#	1r
.	8A#J	.	.
.	[4d#	.	.
.	.	16e#L	.
.	.	16f##J	.
.	8d#]L	4.g#	.
.	16c#	.	.
.	16B#J	.	.
.	8e#L	.	.
.	8d#J	16f##L	.
.	.	16g##J	.
=5	=5	=5	=5
1r	8c#L	8a#L	1r
.	8B#J	8b#J	.
.	8A#L	[4cc#	.
.	8a#J	.	.
.	4.d#	8cc#]L	.
.	.	8f##J	.
.	.	8g#L	.
.	8c#	8a#J	.
=6	=6	=6	=6
1r	4Bn	8d#	1r
.	.	4g#	.
.	4A#	.	.
.	.	8f##	.
.	8G#L	4.b	.
.	8g#J	.	.
.	4c##	.	.
.	.	16a#L	.
.	.	16g#J	.
=7	=7	=7	=7
8r	8d#L	8f#L	1r
*	*clefF4	*	*
8D#	8E#J	8g#J	.
8D#L	8F#L	8a#L	.
8D#J	8G#J	8bJ	.
8C##L	4.A#	16e#L	.
.	.	16f#	.
8D#J	.	16e#	.
.	.	16d#J	.
[4E#	.	16c##L	.
.	.	16d#	.
.	16G#L	16e#	.
.	16A#J	16f#J	.
=8	=8	=8	=8
8E#]L	4.B	16g#L	1r
.	.	16a#	.
8D#J	.	16g#	.
.	.	16f#J	.
[4G#	.	[4e#	.
.	16A#L	.	.
.	16B#J	.	.
8G#]L	4.c#	8e#]L	.
16F#	.	16f#	.
16E#J	.	16g#J	.
8A#L	.	8f#L	.
8G#J	16B#L	8e#J	.
.	16c##J	.	.
=9	=9	=9	=9
8F#L	8d#L	8d#L	8r
8E#J	8G#J	8c##J	8a#
8D#L	16F#L	16d#L	8a#L
.	16G#	16e#	.
16C#	16A#	8f#J	8a#J
16D#J	16B#J	.	.
4.E#	8c#L	4.e#	8g##L
.	16B#	.	8a#J
.	16A#J	.	.
.	[4G##	.	[4b#
16D#L	.	16f#L	.
16E#J	.	16e#J	.
=10	=10	=10	=10
4.F#	8G##]L	8d#L	8b#]L
.	16A#	8c#J	8a#J
.	16G##J	.	.
.	8A#	8r	[4dd#
16E#L	8r	8cc#	.
16F##J	.	.	.
4.G#	8r	8b#L	8dd#]L
.	8d#	8a#J	16cc#
.	.	.	16b#J
.	8B#L	16g#L	8ee#L
.	.	16a#	.
16F##L	8e#J	[8b#J	8dd#J
16G##J	.	.	.
=11	=11	=11	=11
8A#L	4e#	8b#]L	[4cc#
8B#J	.	16a#	.
.	.	16g##J	.
[4c#	4r	8a#L	8cc#]L
.	.	8g#J	16dd#
.	.	.	16eenJ
8c#]L	8r	8f##L	8a#
8F##J	8c#	8a#J	4dd#
8G#L	8BnL	8e#L	.
8A#J	8c#J	16f##	[8cc#
.	.	16g#J	.
=12	=12	=12	=12
8D#	8F##	8a#L	8cc#]L
*	*clefG2	*	*
4G#	4en	8g#J	8bJ
.	.	4r	[4a#
8F##	16d#L	.	.
.	16c##J	.	.
4.B	4.d#	2r	8a#]L
.	.	.	8g#J
.	.	.	[4gg#
16A#L	8b	.	.
16G#J	.	.	.
=13	=13	=13	=13
8d#L	8a#L	1r	8gg#]
8c#J	8d#J	.	4ff#
4B	[4g#	.	.
.	.	.	16ee#L
.	.	.	16dd#J
4.A#	8g#]L	.	8cc##L
.	8c##J	.	8ee#J
.	8d#L	.	8ff#L
8G#	8e#J	.	8cc##J
=14	=14	=14	=14
4F#	8A#	1r	16dd#L
.	.	.	16cc#
.	4d#	.	16b
.	.	.	16a#J
4E#	.	.	8g#L
*	*	*	*strophe
*	*	*	*^
*	*	*	*S/sic	*S/ossia
.	8c##	.	16bxx	8a#xxJ
.	.	.	16a#xxJ	.
*	*	*	*v	*v
*	*	*	*Xstrophe
8D#L	4.f#	.	8bL
8C#J	.	.	8a#J
8BBL	.	.	[4g#
8BJ	16e#L	.	.
.	16d#J	.	.
=15	=15	=15	=15
8A#L	8c##	1r	8g#]L
8AA#J	4d#	.	8f#J
8AA#L	.	.	8e#L
*	*clefF4	*	*
8AA#J	[8c#	.	8enJ
8FF##L	16c#]L	.	[4d#
.	16B	.	.
8GG#J	16A#	.	.
.	16G#J	.	.
[4AA#	16F##L	.	8d#]L
.	16G#	.	.
.	16A#	.	16c#
.	16BJ	.	16d#J
=16	=16	=16	=16
8AA#]L	16c#L	1r	4.en
.	16d#	.	.
8GG#J	16c#	.	.
.	16BJ	.	.
[4C#	16A#L	.	.
.	16G#	.	.
.	16F#	.	16d#L
.	16E#J	.	16e#J
8C#]L	4D#	.	4.f#
16BB	.	.	.
16AA#J	.	.	.
8D#L	8r	.	.
8C#J	8A#	.	16e#L
.	.	.	16f##J
=17	=17	=17	=17
8.BBL	16d#L	8r	8g#
.	16en	.	.
.	16d#	8g#	8r
16AA#J	16c#J	.	.
16GG#L	16BL	8g#L	4r
16AA#	16c#	.	.
16BB	[8d#J	8g#J	.
16GG#J	.	.	.
8C#L	16d#]L	8e#L	2r
.	16c#	.	.
8D#J	16B	8f#J	.
.	16A#J	.	.
8E#L	16G#L	[4g#	.
.	16A#	.	.
8C#J	16B	.	.
.	16G#J	.	.
=18	=18	=18	=18
4.F#	8A#L	8g#]L	1r
.	8d#J	8f#J	.
.	8G#L	[4b	.
16E#L	8g#J	.	.
16D#J	.	.	.
16E#L	[2c#	8b]L	.
16G#	.	.	.
16C#	.	16a#	.
16D#J	.	16g#J	.
16E#L	.	8cc#L	.
16F#	.	.	.
16G#	.	8bJ	.
16E#J	.	.	.
=19	=19	=19	=19
8F#L	8c#]L	8a#L	1r
16E#	8c#J	16g#	.
16D#J	.	16f#J	.
16C#L	8c#L	16e#L	.
16D#	.	16f##	.
16En	8c#J	[8g#J	.
16C#J	.	.	.
[4D#	8A#L	8g#]L	.
.	8BJ	16f#	.
.	.	16g#J	.
16D#]L	[4c#	[4a#	.
16DD#	.	.	.
16EE#	.	.	.
16FF##J	.	.	.
=20	=20	=20	=20
[4GG#	8c#]L	8a#]L	1r
.	8BJ	16g#	.
.	.	16f##J	.
8GG#]L	[4en	8g#L	.
16FF##	.	16a#	.
16GG#J	.	16bJ	.
[4AA#	8e]L	[2cc#	.
.	16d#	.	.
.	16c#J	.	.
8AA#]L	8f#L	.	.
16GG#	8eJ	.	.
16AA#J	.	.	.
=21	=21	=21	=21
2BB	8d#L	8cc#]L	8r
.	8F##J	16b	8dd#
.	.	16a#J	.
.	8G#L	16bL	8dd#L
.	.	16g#	.
.	8G##J	16f#	8dd#J
.	.	16e#J	.
8AA#L	4.A#	8.f#L	8cc##L
8BB#J	.	.	8dd#J
.	.	16f#J	.
8C##L	.	16e#L	[4ee#
.	.	16f#	.
16BB	16G#L	[8g#J	.
16C#J	16A#J	.	.
=22	=22	=22	=22
8D#L	4.Bn	8g#]L	8ee#]L
16C##	.	8f#J	8dd#J
16D#J	.	.	.
[4E#	.	8r	[4gg#
.	16A#L	8ff#	.
.	16B#J	.	.
8E#]L	4.c#	8ee#	8gg#]L
16D#	.	8r	16ff#
16E#J	.	.	16ee#J
[4F#	.	8r	8aa#L
.	16B#L	8ee#	8gg#J
.	16c##J	.	.
=23	=23	=23	=23
8F#]L	[4d#	8dd#L	8ff#L
16E#	.	[8cc#J	8aa#J
16F##J	.	.	.
[4G#	16d#]L	8cc#]L	[4dd#
.	16en	.	.
.	16d#	16b	.
.	16c#J	16a#J	.
8G#]L	4.B	16g#L	4.dd#]
.	.	16d#	.
8F#J	.	8g#J	.
4En	.	8g#L	.
.	16A#L	8g#J	8cc##
.	16G#J	.	.
=24	=24	=24	=24
4D#	8A#L	8f##L	8dd#
*	*clefG2	*	*
.	8enJ	8g#J	8r
4C#	8eL	[4a#	4r
.	8eJ	.	.
4.BB	8d#L	8a#]L	2r
.	8e#J	8g#J	.
.	8f##L	[4cc#	.
16AA#L	8g#J	.	.
16GG#J	.	.	.
=25	=25	=25	=25
8FF##L	8a#L	8cc#]L	1r
8D#J	8g#J	16b	.
.	.	16a#J	.
8D#L	4f##	8dd#L	.
8D#J	.	8cc#J	.
8C##L	8g#	8bL	.
8D#J	4f#	8a#J	.
[4E#	.	[4g#	.
.	16e#L	.	.
.	16d#J	.	.
=26	=26	=26	=26
8E#]L	8c##	8g#]L	1r
8D#J	4d#	8f#J	.
[4G#	.	[4e#	.
.	16c#L	.	.
.	16B#J	.	.
8G#]L	4c#	8e#]L	.
16F#	.	16a#	.
16E#J	.	16g#J	.
8A#L	[4c#	8f#L	.
8G#J	.	8enJ	.
=27	=27	=27	=27
8F##L	8c#]L	8d#L	2r
8D#J	16B	[8dd#J	.
.	16A#J	.	.
[4G#	8BL	16dd#]L	.
.	.	16b	.
.	8enJ	16a#	.
.	.	16g#J	.
8G#]L	8c#L	4.a#	8r
16F##	8A#J	.	8cc#
16E#J	.	.	.
8F##L	8d#L	.	8cc#L
[8F#J	8enJ	8an	8cc#J
=28	=28	=28	=28
8F#]L	8d#	4g#	8b#L
8EnJ	4c#	.	8cc#J
8F#L	.	8anL	[4dd#
8G#J	8B#	16g#	.
.	.	16f#J	.
4.An	4.c#	8enL	8dd#]L
.	.	16f#	8cc#J
.	.	16g#J	.
.	.	4a	[4ff#
16G#L	8d#	.	.
16F#J	.	.	.
=29	=29	=29	=29
8G#L	8B#L	4.g#	8ff#]L
8A#J	8c#J	.	16een
.	.	.	16dd#J
[4Bn	4dn	.	8gg#L
.	.	16anL	8ff#J
.	.	16bJ	.
8B]L	8c#L	4.cc#	8ee#L
16A#	16d#	.	8cc#J
16G#J	16e#J	.	.
8A#L	16f#L	.	[4ff#
.	16g#	.	.
8B#J	[8anJ	8dd#	.
=30	=30	=30	=30
4c#	8a]L	8cc#L	4ff#]
.	16g#	8bJ	.
.	16f#J	.	.
4C#	4g#	8bL	4ee#
.	.	8bJ	.
16F#L	8f#	8a#L	4.ff#
16E#	.	.	.
16F#	8r	8bJ	.
16G#J	.	.	.
16A#L	4r	[4cc#	.
16F#	.	.	.
16G#	.	.	8een
16A#J	.	.	.
=31	=31	=31	=31
16BL	1r	8cc#]L	4.dd#
16c#	.	.	.
16d#	.	8bJ	.
16BJ	.	.	.
16c#L	.	[4een	.
16B	.	.	.
16A#	.	.	16cc#L
16G#J	.	.	16bJ
16F#L	.	8ee]L	4a#
16G#	.	.	.
16F#	.	16dd#	.
16EnJ	.	16cc#J	.
16D#L	.	8ff#L	[4aa#
16C#	.	.	.
16BB	.	8eeJ	.
16AA#J	.	.	.
=32	=32	=32	=32
8BBL	8r	4dd#	8aa#]L
16B	8d#	.	16gg#
16A#J	.	.	16ff##J
8BL	8d#L	8r	[4gg#
16c#	8d#J	8g#	.
16BJ	.	.	.
4A#	8c#L	8a#L	4.gg#]
.	8d#J	8bJ	.
4An	[4en	[4cc#	.
.	.	.	8ff#
=33	=33	=33	=33
[4G#	8e]L	8cc#]L	4.gg#
.	8d#J	16b	.
.	.	16a#J	.
16G#]L	[4g#	[4b	.
16F#	.	.	.
*strophe	*	*	*
*^	*	*	*
*S/sic	*S/ossia	*	*	*
16Enxx	16E#xx	.	.	8ff#
*v	*v	*	*	*
*Xstrophe	*	*	*
16D#J	.	.	.
4.C##	8g#]L	8b]L	[2ee#
.	16f#	16a#	.
.	16e#J	16g#J	.
.	8a#L	[4a#	.
16BB#L	8g#J	.	.
16AA#J	.	.	.
=34	=34	=34	=34
8D#L	8.f#L	8.a#]L	8ee#]L
8DD#J	.	.	16dd#
.	16e#J	16g#J	16cc#J
8D#L	8d#L	8f#L	8bL
8E#J	8c#J	8e#J	8a#J
8F#L	4B#	16d#L	4g##
.	.	16e#	.
16E#	.	8f#J	.
16D#J	.	.	.
*	*clefF4	*	*
16C#L	4c#	8e#L	[4a#
16BB#	.	.	.
16AA#	.	16f#	.
16C#J	.	16d##J	.
=35	=35	=35	=35
2EE#	8B#L	4.e#	4a#]
.	16c#	.	.
.	16A#J	.	.
.	4B#	.	4g##
.	.	8d#	.
8AA#	8A#L	8c#L	4.a#
8r	8B#J	8d#J	.
4r	[4c#	8e#L	.
.	.	8enJ	8g#
=36	=36	=36	=36
*	*	*strophe	*
*	*	*^	*
*	*	*S/sic	*S/ossia	*
1r	8c#]L	8d#xxL	4.d#xx	8f##L
.	8F##J	8enxxJ	.	8cc#J
.	8G#L	8d#xxL	.	8bL
*	*	*v	*v	*
*	*	*Xstrophe	*
.	8A#J	8c#J	[8a#J
.	8D#	4B	8a#]L
.	4G#	.	8g#J
.	.	8A#L	[4cc#
.	8F##	8a#J	.
=37	=37	=37	=37
1r	4.B	8d#L	8cc#]L
.	.	16g#	16b
.	.	16f##J	16a#J
.	.	[4g#	8bL
.	16A#L	.	8eenJ
.	16G#J	.	.
.	8A#	8g#]L	8cc##L
.	4d#	8f#J	8a#J
.	.	8e#L	[4gg#
.	8c##	8ee#J	.
=38	=38	=38	=38
1r	[4f#	8a#L	8gg#]L
.	.	16dd#	16ff#
.	.	16cc##J	16ee#J
.	8f#]L	[4dd#	8ff#L
.	16e#	.	8bbJ
.	16d#J	.	.
.	8e#	8dd#]L	8gg##L
.	4a#	16cc#	8ee#J
.	.	16b#J	.
.	.	[4cc#	16aa#L
.	.	.	16gg#
.	8g#	.	16ff##
.	.	.	16ee#J
=39	=39	=39	=39
1r	8f##L	16cc#]L	[4dd#
.	.	16cc#	.
.	8d#J	16b	.
.	.	16a#J	.
.	[4g#	4b	16dd#]L
.	.	.	16ff#
.	.	.	16ee#
.	.	.	16dd#J
.	8g#]L	4a#	16cc##L
.	.	.	16ee#
.	[8f#J	.	16dd#
.	.	.	16cc#J
.	16f#]L	[4g#	16b#L
.	16f#	.	16dd#
.	16e#	.	16cc#
.	16d#J	.	16bnJ
=40	=40	=40	=40
2r	16c##L	16g#]L	[4a#
.	16e#	16g#	.
.	16d#	16f#	.
.	16c#J	16e#J	.
.	8B#L	16d#L	8a#]L
.	.	16f#	.
.	8BnJ	16e#	[8g#J
.	.	16d#J	.
8r	4A#	8c##L	16g#]L
.	.	.	16e#
8D#	.	8d#J	16f#
.	.	.	16a#J
8D#L	8r	8r	16dd#L
.	.	.	16a#
8D#J	8B#	8g##	8ff#J
=41	=41	=41	=41
8C##L	8e#	8a#	8ee#
8D#J	8r	8r	8r
[4E#	8r	8r	8r
.	8e#	8cc##	8bb
8E#]L	8A#	8ff#	8aa#
8D#J	8r	8r	8r
[4G#	8r	8r	8r
.	8d#	8b	8gg#
=42	=42	=42	=42
8G#]L	8e#	8a#	8cc##
16F#	8r	8r	8r
16E#J	.	.	.
8A#L	8r	8r	8r
8G#J	8c##	8e#	8ee#
8F#L	8d#L	8f#L	8a#L
16D#	16A#	16f#	16dd#
16E#J	16G#J	16e#J	16cc#J
8F#L	8A#L	8d#L	8dd#L
8G#J	8BJ	[8e#J	8g#J
=43	=43	=43	=43
4A#	[4A#	8e#]	4f#
.	.	4d#	.
4AA#	8.A#]L	.	4e#
.	.	8c##	.
.	16G#J	.	.
2D#	8F#L	8d#L	8d#L
.	8A#J	16f#	8dd#J
.	.	16e#J	.
.	8A#L	16f#L	8dd#L
.	.	16a#	.
.	8A#J	16g#	8dd#J
.	.	16f#J	.
=44	=44	=44	=44
8D#L	8BL	16e#L	8cc##L
.	.	16g#	.
16D#	8A#J	16f#	8dd#J
16C##J	.	16a#J	.
16D#L	[4G#	16bL	[4ee#
16F#	.	16a#	.
16E#	.	[8bJ	.
16D#J	.	.	.
8C##L	8G#]L	8b]L	8ee#]L
8F#J	8A#J	8a#J	8dd#J
16r	[4E#	16r	[4gg#
16BBL	.	16dd#L	.
16AA#	.	16cc##	.
16GG#J	.	16b#J	.
=45	=45	=45	=45
*	*	*	*^
!! Five-voice material to the end:
8.AA#L	8E#]L	8cc##L	8gg#L]	2ryy
.	16F#	16dd#	16ff#	.
16GG#J	16G#J	16ee#J	16ee#J	.
8FF#L	8D#L	8ff#L	8aa#L	.
8AA#J	8E#J	8cc##J	8gg#J	.
8D#L	8F#L	8dd#L	8ff#L	4ryy
8E#J	8BJ	8g#J	8cc##J	.
8F#L	8A#L	16f#L	[4dd#	8r
.	.	16e#	.	.
8GG##J	16D#	[8f#J	.	8bn
.	16E#J	.	.	.
=46	=46	=46	=46	=46
2AA#	8F#L	8f#]L	4dd#]	2a#
.	16E#	16g#	.	.
.	16D#J	16f#J	.	.
.	8A#L	16e#L	4cc##	.
.	.	16f#	.	.
.	8e#J	8g#J	.	.
2DD#	2d#	2f##	2dd#	2a#
*	*	*	*v	*v
==	==	==	==
*-	*-	*-	*-
!!!OTA: Das wohltemperirte Clavier
!!!OCY: Deutschland
!!!PPP: Leipzig
!!!ODT: 1738//-1742//
!!!PDT: 1739//-1742//
!!!AFR: fuga; fugue
!!!AST: polyphony
!!!AMT: simple quadruple
!!!SCA: Bach-Werke-Verzeichnis
!!!YOR: Bach-Gesellschaft Ausgabe, Band 14
!!!YOO: Breitkopf und Härtel
!!!YOY: 1866
!!!YOE: Franz Kroll (1820-1877)
!!!AIN: cemba; clavi
!!!YEC: Copyright 1994, David Huron
!!!YEM: Rights to all derivative electronic formats reserved.
!!!ENC: David Huron
!!!END: 1986/12/02
!!!EED: David Huron
!!!YER: 1994/08/10
!!!EED2: Craig Stuart Sapp (notational niceties)
!!!EEV: 2020/10/05
!!!EFL: 32/48
